X:1
T:Title
%%score { ( 1 4 ) | ( 2 3 ) }
L:1/8
Q:1/4=114
M:6/4
K:Db
V:1 treble nm="Grand Piano"
V:4 treble 
V:2 bass 
V:3 bass 
V:1
 F2 F2 F2 B4 B2 | A4 D2 G4 F2 | [G,CE]4 [G,CE]2 .[G,CE]4[K:treble] [CA]2 | A12 | F2 F2 F2 B4 B2 | %5
w: W.~A.~Post * * * *|||||
 A4 D2 G4 F2 | E2 A2 [Af]2 [=Ge]4 [DEG]2 | [CEA]6- [CEA]4 [CA]2 | %8
w: |||
 [EGc]4 [CGB]2 [EG]2 [=DF]2 [EG]2 | [GB]4 [FA]2 [DF]4 [DF]2 | [FA]4 [EG]2 [CE]4 [C_F]2 | %11
w: |||
 F6 A4 [FA]2 | B4 B2 c4 c2 |[M:7/4] d4 z2 z2 z2 z4 |[M:6/4] [DFA]4 [A,DF]2 [CG]4 C2 | D12 | %16
w: |||||
 [FA]2 A2 A2 [DFA]4 [FB]2 | d4- [Gd]2 .[Gc]6 | [EG]2 G2 G2 G4 A2 | B4- [GB]2 .[FA]6 | %20
w: ||||
 [FA]2 [Fd]2 [Af]2 [Ae]4 [Ad]2 | E2 G2 d2 c4 B2 | [DFA]2 [DFA]2 [DFA]2 [D=GB]4 [E_Gc]2 | %23
w: |||
 d4- [Gd-]2 [Fd]6 |] %24
w: |
V:2
 [D,A,D]2 [D,A,D]2 [D,A,D]2 [D,G,D]4 [D,G,D]2 | [D,F,D]4 [D,F,]2 [D,B,D]4 [D,A,D]2 | %2
 A,,4 A,,2 z2[K:treble] B2[K:bass] [A,,E,]2 | [F,D]4 G,2 .A,6 | %4
 [D,A,D]2 [D,A,D]2 [D,A,D]2 [D,G,D]4 [D,G,D]2 | [D,F,D]4 [D,F,]2 [D,B,D]4 [D,A,D]2 | %6
 [A,C]2 [CE]2 [E,C]2 B,2 C2 E,2 | A,,6- A,,4 A,2 | A,4 A,2 [A,,A,]4 [A,,A,]2 | %9
 [D,A,]4 [D,D]2 [D,A,]4 [D,A,]2 | [A,,A,]4 [A,,A,]2 [A,,A,]4 [A,,A,]2 | [A,D]6 [DF]4 [D,D]2 | %12
 [G,DG]4 [G,DF]2 [=G,C_F]4 [=A,C=F]2 |[M:7/4] B,4[K:bass] z2 z2 z2 z4 | %14
[M:6/4] A,,4 A,,2 [A,,E,]4 [A,,G,A,]2 | .[F,A,]6 z6 | z2[K:treble] F2 F2[K:bass] D,4 [D,A,]2 | %17
 [E,A,]4 [E,A,]2 .[E,A,]6 | z2 E2 E2 [A,CE]4 [A,CF]2 | [D,D]4 [D,D]2 .[D,D]6 | %20
 [D,D]2 [D,D]2 [D,D]2 [E,C]4 [F,D]2 | z6 .C6 | A,2 A,2 A,2 E,4 A,,2 | z4 B,2 .A,6 |] %24
V:3
 x12 | x12 | z6 .A,,6[K:treble][K:bass] | D,12 | x12 | x12 | .E,6 .E,6 | x12 | x12 | x12 | x12 | %11
 D,12 | x12 |[M:7/4] F2 z2[K:bass] [D,C]2 [G,B,]6 G,,2 |[M:6/4] x12 | D,4- [D,-G,]2 [D,F,]6 | %16
 [D,D]6[K:treble][K:bass] z6 | x12 | [A,C]6 z6 | x12 | x12 | %21
 [G,B,]2 [G,B,E]2 [G,B,E]2 [=G,_F]4- [G,DF]2 | x12 | D,12 |] %24
V:4
 x12 | x12 | x10[K:treble] x2 | z4 E2 .F6 | x12 | x12 | x12 | x12 | x12 | x12 | x12 | x12 | x12 | %13
[M:7/4] z2 B2 [Ad]2 [Gd]6 [DGB]2 |[M:6/4] x12 | z4 B,2 .A,6 | x12 | .G6 z6 | x12 | .G6 z6 | x12 | %21
 x12 | x12 | .[DF]6 z6 |] %24

